X: 1
T: Saint Anne's Reel  2
S: Roaring Jelly collection
M: C|
R: reel
K: D
A2 |\
"D"f2fg fedB | A2FG AFAd |\
[1,3 "G"BGGF G2FG | "D"BAAF A2de :|\
[2,4 "G"BGBd "A"cAce | "D"dfec d2 :|
|: ag |\
"D"fdfa fdfa | "A"aggf g2gf | edcB ABce |\
[1,3 "D"baa^g a2 a=g :|[2,4 "D"fdec d2 :|
